app/assets/img/HomePage/hero-background.svg

<svg fill="none" height="427" viewBox="0 0 652 427" width="652" xmlns="http://www.w3.org/2000/svg"><circle cx="273.5" cy="176.5" fill="#edc261" opacity=".2" r="176.5"/><path d="m425.012 266.947c-64.626-1.956-60.709-164.299 0-179.947 64.626 0 109.668 58.678 105.751 93.885-3.917 35.208-41.125 88.018-105.751 86.062z" fill="#fe93cf" opacity=".5"/><path d="m390.214 398.223c-276 38-396.00012-31-390.000118-70 33.000018-124 177.000118 32 375.000118-75s267-38 274-16 17 123-259 161z" fill="#276ce5" opacity=".1"/><path clip-rule="evenodd" d="m171.955 191.127c-4.996-5.235-9.121-11.818-10.568-19.461-4.169-22.02 20.562-19.169 27.846-8.489 7.285 10.68 13.598 38.79 8.16 41.263-2.169.986-7.671-.525-13.767-4.094l10.41 29.185-18.975 1.589z" fill="#b28b67" fill-rule="evenodd"/><path clip-rule="evenodd" d="m179.396 173.191c3.795 13.149 7.405 19.569 10.828 19.26 5.136-.463 8.614-4.734 10.868-4.937 1.642-.149 1.83 2.33 1.152 4.241-.559 1.576-4.607 3.413-4.081 5.731.526 2.319 3.575.214 3.887 1.589.516 2.275 2.093 6.497-1.226 6.796-3.359.303-13.321-.284-16.316-6.065-1.933-3.732-4.42-11.6-7.461-23.606-.211-.011-.421-.007-.632.012-2.878.26-4.582 3.246-3.806 6.669.394 1.738 1.352 3.255 2.576 4.293-.747 2.133-1.619 4.37-2.673 6.692-6.759-3.627-13.832-15.391-10.791-27.579.275-5.861 3.142-9.237 7.023-11.035 3.021-2.001 6.513-2.511 9.727-1.764 5.984.069 11.688 1.719 13.453 2.845 1.494 6.587.864 8.638-8.34 9.292-1.931 1.618-3.109 4.21-4.188 7.566z" fill="#191847" fill-rule="evenodd"/><path clip-rule="evenodd" d="m276.387 304.344c5.842-7.922 20.444-2.678 20.436 3.881-.024 17.221-15.739 98.976-16.559 104.138-.821 5.161-9.611 6.85-10.123.401-.814-10.263-2.327-45.837-.813-62.387.442-4.835.908-9.507 1.378-13.885-8.259 14.838-20.819 35.81-37.678 62.916l-9.37-4.281c7.358-24.243 13.392-41.358 18.101-51.345 8.062-17.1 15.623-31.744 18.805-36.902 4.203-6.814 11.02-5.909 15.823-2.536z" fill="#b28b67" fill-rule="evenodd"/><path clip-rule="evenodd" d="m224.327 381.664 32.161-76.187c7.705-12.394 29.307 2.522 26.679 9.71-5.965 16.319-36.302 69.153-38.079 74.015z" fill="#1f28cf" fill-rule="evenodd"/><path clip-rule="evenodd" d="m297.636 314.174c0 21.595-9.465 72.356-9.472 77.111l-22.93-.773c4.008-44.134 5.699-66.35 5.071-66.649-1.412-.673-57.887 7.816-74.825 8.457-24.424.924-34.528-14.06-35.348-42.495h47.311c40.455 4.829 67.044 8.188 79.766 10.076 8.17 1.213 10.427 8.324 10.427 14.273z" fill="#2b44ff" fill-rule="evenodd"/><path clip-rule="evenodd" d="m268.897 400.603c-.91 2.429-1.366 4.248-1.366 5.454 0 1.467.245 3.608.734 6.423h45.89c1.193-3.942.504-6.071-2.065-6.385-2.569-.315-4.704-.598-6.403-.852l-21.33-9.508c-.41-.183-.891.001-1.074.411-.003.007-.006.014-.009.022l-1.371 3.325c-2.379 1.11-4.311 1.665-5.798 1.665-1.209 0-2.877-.488-5.006-1.464-.817-.374-1.783-.016-2.158.801-.016.035-.031.071-.044.108z" fill="#e4e4e4" fill-rule="evenodd"/><path clip-rule="evenodd" d="m218.524 393.736c-1.808 2.627-2.891 4.66-3.25 6.099-.436 1.75-.781 4.375-1.035 7.878 2.029.506 20.272 5.054 54.726 13.645 2.594-4.347 2.406-7.09-.564-8.229-2.971-1.139-5.432-2.112-7.383-2.92l-22.609-17.681c-.435-.34-1.064-.264-1.404.171-.006.008-.011.015-.017.023l-2.624 3.559c-3.166.616-5.636.703-7.41.261-1.441-.36-3.285-1.438-5.534-3.234-.863-.69-2.121-.549-2.811.314-.03.037-.058.075-.085.114z" fill="#e4e4e4" fill-rule="evenodd"/><path d="m308.62 412.48h-37.427c-1.573 0-2.848 1.275-2.848 2.848s1.275 2.847 2.848 2.847h37.427c1.573 0 2.848-1.274 2.848-2.847s-1.275-2.848-2.848-2.848z" fill="#2f3676"/><path clip-rule="evenodd" d="m157.691 294.503h87.059c4.493 0 8.136 3.643 8.136 8.136v39.868h-100.077c-1.797 0-3.254-1.457-3.254-3.254v-36.614c0-4.493 3.642-8.136 8.136-8.136z" fill="#2f3676" fill-rule="evenodd"/><path clip-rule="evenodd" d="m244.75 294.503h1.785c3.985 0 7.383 2.886 8.029 6.818l17.849 108.718h-8.694" fill="#2f3676" fill-rule="evenodd"/><path d="m268.345 426.312c8.089 0 14.646-6.557 14.646-14.646 0-8.088-6.557-14.645-14.646-14.645-8.088 0-14.645 6.557-14.645 14.645 0 8.089 6.557 14.646 14.645 14.646z" fill="#191847"/><path clip-rule="evenodd" d="m160.132 424.685c-34.151 0-61.8365-27.685-61.8365-61.837 0-34.151 27.6855-61.836 61.8365-61.836s61.836 27.685 61.836 61.836c0 34.152-27.685 61.837-61.836 61.837zm0-11.391c27.86 0 50.445-22.585 50.445-50.446 0-27.86-22.585-50.445-50.445-50.445s-50.446 22.585-50.446 50.445c0 27.861 22.586 50.446 50.446 50.446z" fill="#191847" fill-rule="evenodd"/><path d="m163.386 309.148h-6.509v107.4h6.509z" fill="#191847"/><path d="m199.254 326.027-2.301-2.301c-.636-.635-1.666-.635-2.302 0l-73.641 73.642c-.636.635-.636 1.666 0 2.301l2.301 2.301c.635.636 1.666.636 2.301 0l73.642-73.641c.635-.636.635-1.666 0-2.302z" fill="#191847"/><path d="m213.832 364.476v-3.255c0-.899-.729-1.627-1.627-1.627h-104.146c-.898 0-1.627.728-1.627 1.627v3.255c0 .898.729 1.627 1.627 1.627h104.146c.898 0 1.627-.729 1.627-1.627z" fill="#191847"/><path d="m196.953 401.971 2.301-2.302c.635-.635.635-1.666 0-2.301l-73.642-73.642c-.635-.635-1.666-.635-2.301 0l-2.302 2.301c-.635.636-.635 1.666 0 2.302l73.642 73.642c.636.635 1.666.635 2.302 0z" fill="#191847"/><g clip-rule="evenodd" fill-rule="evenodd"><path d="m238.084 252.172 28.931-7.158c5.148-4.384 10.09-7.466 14.826-9.247 1.406-.161 3.791.266 1.144 3.813-2.647 3.548-5.268 7.448-4.291 9.152.978 1.705 3.96.807 5.06 3.46.734 1.769-4.271 2.461-15.015 2.076l-21.869 13.224zm-92.382 15.564 16.637-1.238c-7.813 49.529-11.864 75.459-12.153 77.789-.652 5.242 4.748 12.722 7.242 16.774-4.589 3.124-6.215-6.978-11.974-2.9-5.256 3.722-8.515 9.971-16.48 5.532-.979-.545-2.407-2.779-.555-4.758 4.612-4.931 10.959-13.425 11.486-16.097.719-3.645 2.652-28.679 5.797-75.102z" fill="#997659"/><path d="m174.082 209.395 12.512-1.693c14.194 29.906 37.601 45.705 71.782 31.345l19.275 38.298c-32.361 12.29-67.988 3.298-89.421-37.106-5.549-10.459-10.923-21.429-14.148-30.844z" fill="#afb9c5"/><path d="m166.798 203.567 19.696 3.561c8.128 37.879 23.513 61.234 34.72 88.667l-50.272 4.004c1.357 9.679 3.044 19.605 4.997 29.782l-37.641 2.997c-2.993-54.375 6.097-97.351 27.268-128.927l1.219-.097z" fill="#c5cfd6"/><path d="m167.194 245.847c3.15 22.875 7.016 40.198 11.599 51.967l-8.537.786c-2.246-18.503-3.407-36.074-3.062-52.753z" fill="#000" fill-opacity=".1"/><path d="m450.332 122.093c-8.516.5-13.694-10.97-19.674-17.08-4.279-4.371-9.943-2.66-12.836-8.9623-7.274-15.8468 2.471-27.8728 17.825-28.7741 15.354-.9014 27.483 8.4319 32.387 23.2449 4.905 14.8125-2.348 30.6695-17.702 31.5715z" fill="#191847"/><path d="m444.256 111.367c2.158-4.688 3.125-10.345 1.541-16.5432-4.562-17.859-23.555-12.8769-25.603-3.6341-2.047 9.2433 2.975 32.1503 8.268 33.5043 2.111.539 6.021-1.262 9.67-4.755l2.092 24.21 15.934-.839z" fill="#b28b67"/><path d="m437.352 100.71c.579-.431 1.284-.698 2.074-.744 2.532-.1487 4.993 2.017 5.497 4.838.205 1.151.053 2.233-.371 3.121 1.451 1.983 2.577 4.09 3.214 6.286 3.765-.221 14.598-17.3122-1.826-31.8294s-32.3 8.5159-26.128 9.4424c3.548.5327 11.097 3.8582 17.54 8.886z" fill="#191847"/><path d="m467.386 220.058-31.083 107.108-14.62 80.419h-14.673l14.647-187.527z" fill="#784931"/><path d="m481.355 220.058c-2.169 55.642-1.314 85.991-.828 91.046.485 5.056 3.241 38.913 22.019 98.178h-15.262c-24.869-56.855-33.55-90.712-36.402-98.178-2.853-7.465-11.277-37.814-23.575-91.046z" fill="#915b3c"/><path d="m468.053 220.058c-8.085 36.856-22.069 95.688-41.951 176.496h-21.462c-1.585-82.941 5.158-137.531 16.836-176.496z" fill="#2f3676"/><path d="m481.463 220.058c-2.124 55.642 3.381 110.46 20.432 177.362h-22.899c-24.914-56.006-42.771-110.553-54.975-177.362z" fill="#5c63ab"/><path d="m504.721 420.313-.842-13.577c-4.93 1.442-11.106.876-18.526-1.697-7.979 5.652-18.023 9.511-30.133 11.578-.924.157-1.545 1.034-1.387 1.958.01.06.023.119.04.177l1.164 4.106h30.316 17.684z" fill="#191847"/><path d="m424.959 420.313-.842-13.577c-4.931 1.442-11.106.876-18.526-1.697-7.979 5.652-18.024 9.511-30.133 11.578-.924.157-1.545 1.034-1.388 1.958.011.06.024.119.04.177l1.165 4.106h30.316 17.684z" fill="#191847"/><path d="m396.025 208.904-21.87 24.428c-6.65 2.95-12.036 6.286-16.156 10.011-.897 1.272-1.799 3.742 2.768 2.807 4.568-.934 9.433-1.686 10.421.015s-1.409 4.146.355 6.391c1.175 1.497 4.474-2.975 9.896-13.415l23.463-14.954zm100.194-10.779-17.056 2.041c17.986 36.891 27.628 56.455 28.923 58.69 2.916 5.028.477 13.478-.395 17.969 6.117 2.15 3.503-8.121 11.247-5.268 7.068 2.603 13.131 8.097 19.542 2.123.788-.735 1.323-3.22-1.451-4.795-6.913-3.924-17.153-11.004-18.843-13.528-2.304-3.442-9.627-22.519-21.967-57.232z" fill="#915b3c"/><path d="m434.594 131.935-7.088-.895c-22.074 25.739-25.815 72.931-53.606 99.436l9.046 9.823c53.363-10.563 58.593-68.165 51.648-108.364z" fill="#e87613"/><path d="m484.56 222.415c-26.904 3.082-46.693 5.35-59.369 6.802-2.713.311-3.059-4.113-3.099-6.361-.467-25.946 11.82-55.379 4.713-91.573l16.538-4.955c19.149 23.767 30.185 54.466 41.217 96.087z" fill="#dde3e9"/><path d="m470.63 147.471c2.301-1.076 3.886-3.15 4.753-6.221 3.739-13.238.164-19.877-6.881-21.381s-12.024 3.845-22.546 5.06c-.572.066-1.088.167-1.549.303l-5.226.95c-3.923 59.564-.598 98.617 9.977 117.161l46.131-5.328c4.128 6.844 7.917 12.565 11.367 17.165l12.57-1.452c-7.187-43.104-23.386-78.523-48.596-106.257z" fill="#ff9b21"/><path d="m478.246 208.268c1.216 13.847.782 24.048-1.301 30.602l17.263-1.983c-4.855-8.008-10.176-17.547-15.962-28.619z" fill="#000" fill-opacity=".1"/></g></svg>

<svg width="652" height="427" viewBox="0 0 652 427" fill="none" xmlns="http://www.w3.org/2000/svg">
<circle opacity="0.2" cx="273.5" cy="176.5" r="176.5" fill="#EDC261"/>
<path opacity="0.5" d="M425.012 266.947C360.386 264.991 364.303 102.648 425.012 87C489.638 87 534.68 145.678 530.763 180.885C526.846 216.093 489.638 268.903 425.012 266.947Z" fill="#FE93CF"/>
<path opacity="0.1" d="M390.214 398.223C114.214 436.223 -5.78612 367.223 0.213882 328.223C33.2139 204.223 177.214 360.223 375.214 253.223C573.214 146.223 642.214 215.223 649.214 237.223C656.214 259.223 666.214 360.223 390.214 398.223Z" fill="#276CE5"/>
<path fill-rule="evenodd" clip-rule="evenodd" d="M171.955 191.127C166.959 185.892 162.834 179.309 161.387 171.666C157.218 149.646 181.949 152.497 189.233 163.177C196.518 173.857 202.831 201.967 197.393 204.44C195.224 205.426 189.722 203.915 183.626 200.346L194.036 229.531L175.061 231.12L171.955 191.127Z" fill="#B28B67"/>
<path fill-rule="evenodd" clip-rule="evenodd" d="M179.396 173.191C183.191 186.34 186.801 192.76 190.224 192.451C195.36 191.988 198.838 187.717 201.092 187.514C202.734 187.365 202.922 189.844 202.244 191.755C201.685 193.331 197.637 195.168 198.163 197.486C198.689 199.805 201.738 197.7 202.05 199.075C202.566 201.35 204.143 205.572 200.824 205.871C197.465 206.174 187.503 205.587 184.508 199.806C182.575 196.074 180.088 188.206 177.047 176.2C176.836 176.189 176.626 176.193 176.415 176.212C173.537 176.472 171.833 179.458 172.609 182.881C173.003 184.619 173.961 186.136 175.185 187.174C174.438 189.307 173.566 191.544 172.512 193.866C165.753 190.239 158.68 178.475 161.721 166.287C161.996 160.426 164.863 157.05 168.744 155.252C171.765 153.251 175.257 152.741 178.471 153.488C184.455 153.557 190.159 155.207 191.924 156.333C193.418 162.92 192.788 164.971 183.584 165.625C181.653 167.243 180.475 169.835 179.396 173.191Z" fill="#191847"/>
<path fill-rule="evenodd" clip-rule="evenodd" d="M276.387 304.344C282.229 296.422 296.831 301.666 296.823 308.225C296.799 325.446 281.084 407.201 280.264 412.363C279.443 417.524 270.653 419.213 270.141 412.764C269.327 402.501 267.814 366.927 269.328 350.377C269.77 345.542 270.236 340.87 270.706 336.492C262.447 351.33 249.887 372.302 233.028 399.408L223.658 395.127C231.016 370.884 237.05 353.769 241.759 343.782C249.821 326.682 257.382 312.038 260.564 306.88C264.767 300.066 271.584 300.971 276.387 304.344Z" fill="#B28B67"/>
<path fill-rule="evenodd" clip-rule="evenodd" d="M224.327 381.664L256.488 305.477C264.193 293.083 285.795 307.999 283.167 315.187C277.202 331.506 246.865 384.34 245.088 389.202L224.327 381.664Z" fill="#1F28CF"/>
<path fill-rule="evenodd" clip-rule="evenodd" d="M297.636 314.174C297.636 335.769 288.171 386.53 288.164 391.285L265.234 390.512C269.242 346.378 270.933 324.162 270.305 323.863C268.893 323.19 212.418 331.679 195.48 332.32C171.056 333.244 160.952 318.26 160.132 289.825H207.443C247.898 294.654 274.487 298.013 287.209 299.901C295.379 301.114 297.636 308.225 297.636 314.174Z" fill="#2B44FF"/>
<path fill-rule="evenodd" clip-rule="evenodd" d="M268.897 400.603C267.987 403.032 267.531 404.851 267.531 406.057C267.531 407.524 267.776 409.665 268.265 412.48C269.967 412.48 285.264 412.48 314.155 412.48C315.348 408.538 314.659 406.409 312.09 406.095C309.521 405.78 307.386 405.497 305.687 405.243L284.357 395.735C283.947 395.552 283.466 395.736 283.283 396.146C283.28 396.153 283.277 396.16 283.274 396.168L281.903 399.493C279.524 400.603 277.592 401.158 276.105 401.158C274.896 401.158 273.228 400.67 271.099 399.694L271.099 399.694C270.282 399.32 269.316 399.678 268.941 400.495C268.925 400.53 268.91 400.566 268.897 400.603Z" fill="#E4E4E4"/>
<path fill-rule="evenodd" clip-rule="evenodd" d="M218.524 393.736C216.716 396.363 215.633 398.396 215.274 399.835C214.838 401.585 214.493 404.21 214.239 407.713C216.268 408.219 234.511 412.767 268.965 421.358C271.559 417.011 271.371 414.268 268.401 413.129C265.43 411.99 262.969 411.017 261.018 410.209L238.409 392.528C237.974 392.188 237.345 392.264 237.005 392.699C236.999 392.707 236.994 392.714 236.988 392.722L234.364 396.281C231.198 396.897 228.728 396.984 226.954 396.542C225.513 396.182 223.669 395.104 221.42 393.308L221.42 393.308C220.557 392.618 219.299 392.759 218.609 393.622C218.579 393.659 218.551 393.697 218.524 393.736Z" fill="#E4E4E4"/>
<path d="M308.62 412.48H271.193C269.62 412.48 268.345 413.755 268.345 415.328C268.345 416.901 269.62 418.175 271.193 418.175H308.62C310.193 418.175 311.468 416.901 311.468 415.328C311.468 413.755 310.193 412.48 308.62 412.48Z" fill="#2F3676"/>
<path fill-rule="evenodd" clip-rule="evenodd" d="M157.691 294.503H244.75C249.243 294.503 252.886 298.146 252.886 302.639V342.507H152.809C151.012 342.507 149.555 341.05 149.555 339.253V302.639C149.555 298.146 153.197 294.503 157.691 294.503Z" fill="#2F3676"/>
<path fill-rule="evenodd" clip-rule="evenodd" d="M244.75 294.503H246.535C250.52 294.503 253.918 297.389 254.564 301.321L272.413 410.039H263.719" fill="#2F3676"/>
<path d="M268.345 426.312C276.434 426.312 282.991 419.755 282.991 411.666C282.991 403.578 276.434 397.021 268.345 397.021C260.257 397.021 253.7 403.578 253.7 411.666C253.7 419.755 260.257 426.312 268.345 426.312Z" fill="#191847"/>
<path fill-rule="evenodd" clip-rule="evenodd" d="M160.132 424.685C125.981 424.685 98.2955 397 98.2955 362.848C98.2955 328.697 125.981 301.012 160.132 301.012C194.283 301.012 221.968 328.697 221.968 362.848C221.968 397 194.283 424.685 160.132 424.685ZM160.132 413.294C187.992 413.294 210.577 390.709 210.577 362.848C210.577 334.988 187.992 312.403 160.132 312.403C132.272 312.403 109.686 334.988 109.686 362.848C109.686 390.709 132.272 413.294 160.132 413.294Z" fill="#191847"/>
<path d="M163.386 309.148H156.877V416.548H163.386V309.148Z" fill="#191847"/>
<path d="M199.254 326.027L196.953 323.726C196.317 323.091 195.287 323.091 194.651 323.726L121.01 397.368C120.374 398.003 120.374 399.034 121.01 399.669L123.311 401.97C123.946 402.606 124.977 402.606 125.612 401.97L199.254 328.329C199.889 327.693 199.889 326.663 199.254 326.027Z" fill="#191847"/>
<path d="M213.832 364.476V361.221C213.832 360.322 213.103 359.594 212.205 359.594H108.059C107.161 359.594 106.432 360.322 106.432 361.221V364.476C106.432 365.374 107.161 366.103 108.059 366.103H212.205C213.103 366.103 213.832 365.374 213.832 364.476Z" fill="#191847"/>
<path d="M196.953 401.971L199.254 399.669C199.889 399.034 199.889 398.003 199.254 397.368L125.612 323.726C124.977 323.091 123.946 323.091 123.311 323.726L121.009 326.027C120.374 326.663 120.374 327.693 121.009 328.329L194.651 401.971C195.287 402.606 196.317 402.606 196.953 401.971Z" fill="#191847"/>
<path fill-rule="evenodd" clip-rule="evenodd" d="M238.084 252.172L267.015 245.014C272.163 240.63 277.105 237.548 281.841 235.767C283.247 235.606 285.632 236.033 282.985 239.58C280.338 243.128 277.717 247.028 278.694 248.732C279.672 250.437 282.654 249.539 283.754 252.192C284.488 253.961 279.483 254.653 268.739 254.268L246.87 267.492L238.084 252.172ZM145.702 267.736L162.339 266.498C154.526 316.027 150.475 341.957 150.186 344.287C149.534 349.529 154.934 357.009 157.428 361.061C152.839 364.185 151.213 354.083 145.454 358.161C140.198 361.883 136.939 368.132 128.974 363.693C127.995 363.148 126.567 360.914 128.419 358.935C133.031 354.004 139.378 345.51 139.905 342.838C140.624 339.193 142.557 314.159 145.702 267.736Z" fill="#997659"/>
<path fill-rule="evenodd" clip-rule="evenodd" d="M174.082 209.395L186.594 207.702C200.788 237.608 224.195 253.407 258.376 239.047L277.651 277.345C245.29 289.635 209.663 280.643 188.23 240.239C182.681 229.78 177.307 218.81 174.082 209.395Z" fill="#AFB9C5"/>
<path fill-rule="evenodd" clip-rule="evenodd" d="M166.798 203.567L186.494 207.128C194.622 245.007 210.007 268.362 221.214 295.795L170.942 299.799C172.299 309.478 173.986 319.404 175.939 329.581L138.298 332.578C135.305 278.203 144.395 235.227 165.566 203.651L166.785 203.554L166.798 203.567Z" fill="#C5CFD6"/>
<path fill-rule="evenodd" clip-rule="evenodd" d="M167.194 245.847C170.344 268.722 174.21 286.045 178.793 297.814L170.256 298.6C168.01 280.097 166.849 262.526 167.194 245.847L167.194 245.847Z" fill="black" fill-opacity="0.1"/>
<path fill-rule="evenodd" clip-rule="evenodd" d="M450.332 122.093C441.816 122.593 436.638 111.123 430.658 105.013C426.379 100.642 420.715 102.353 417.822 96.0507C410.548 80.2039 420.293 68.1779 435.647 67.2766C451.001 66.3752 463.13 75.7085 468.034 90.5215C472.939 105.334 465.686 121.191 450.332 122.093Z" fill="#191847"/>
<path fill-rule="evenodd" clip-rule="evenodd" d="M444.256 111.367C446.414 106.679 447.381 101.022 445.797 94.8238C441.235 76.9648 422.242 81.9469 420.194 91.1897C418.147 100.433 423.169 123.34 428.462 124.694C430.573 125.233 434.483 123.432 438.132 119.939L440.224 144.149L456.158 143.31L444.256 111.367Z" fill="#B28B67"/>
<path fill-rule="evenodd" clip-rule="evenodd" d="M437.352 100.71C437.931 100.279 438.636 100.012 439.426 99.966C441.958 99.8173 444.419 101.983 444.923 104.804C445.128 105.955 444.976 107.037 444.552 107.925C446.003 109.908 447.129 112.015 447.766 114.211C451.531 113.99 462.364 96.8988 445.94 82.3816C429.516 67.8644 413.64 90.8975 419.812 91.824C423.36 92.3567 430.909 95.6822 437.352 100.71Z" fill="#191847"/>
<path fill-rule="evenodd" clip-rule="evenodd" d="M467.386 220.058L436.303 327.166L421.683 407.585H407.01L421.657 220.058H467.386Z" fill="#784931"/>
<path fill-rule="evenodd" clip-rule="evenodd" d="M481.355 220.058C479.186 275.7 480.041 306.049 480.527 311.104C481.012 316.16 483.768 350.017 502.546 409.282H487.284C462.415 352.427 453.734 318.57 450.882 311.104C448.029 303.639 439.605 273.29 427.307 220.058H481.355Z" fill="#915B3C"/>
<path fill-rule="evenodd" clip-rule="evenodd" d="M468.053 220.058C459.968 256.914 445.984 315.746 426.102 396.554H404.64C403.055 313.613 409.798 259.023 421.476 220.058H468.053Z" fill="#2F3676"/>
<path fill-rule="evenodd" clip-rule="evenodd" d="M481.463 220.058C479.339 275.7 484.844 330.518 501.895 397.42H478.996C454.082 341.414 436.225 286.867 424.021 220.058H481.463Z" fill="#5C63AB"/>
<path fill-rule="evenodd" clip-rule="evenodd" d="M504.721 420.313L503.879 406.736C498.949 408.178 492.773 407.612 485.353 405.039C477.374 410.691 467.33 414.55 455.22 416.617C454.296 416.774 453.675 417.651 453.833 418.575C453.843 418.635 453.856 418.694 453.873 418.752L455.037 422.858H485.353H503.037L504.721 420.313Z" fill="#191847"/>
<path fill-rule="evenodd" clip-rule="evenodd" d="M424.959 420.313L424.117 406.736C419.186 408.178 413.011 407.612 405.591 405.039C397.612 410.691 387.567 414.55 375.458 416.617C374.534 416.774 373.913 417.651 374.07 418.575C374.081 418.635 374.094 418.694 374.11 418.752L375.275 422.858H405.591H423.275L424.959 420.313Z" fill="#191847"/>
<path fill-rule="evenodd" clip-rule="evenodd" d="M396.025 208.904L374.155 233.332C367.505 236.282 362.119 239.618 357.999 243.343C357.102 244.615 356.2 247.085 360.767 246.15C365.335 245.216 370.2 244.464 371.188 246.165C372.176 247.866 369.779 250.311 371.543 252.556C372.718 254.053 376.017 249.581 381.439 239.141L404.902 224.187L396.025 208.904ZM496.219 198.125L479.163 200.166C497.149 237.057 506.791 256.621 508.086 258.856C511.002 263.884 508.563 272.334 507.691 276.825C513.808 278.975 511.194 268.704 518.938 271.557C526.006 274.16 532.069 279.654 538.48 273.68C539.268 272.945 539.803 270.46 537.029 268.885C530.116 264.961 519.876 257.881 518.186 255.357C515.882 251.915 508.559 232.838 496.219 198.125Z" fill="#915B3C"/>
<path fill-rule="evenodd" clip-rule="evenodd" d="M434.594 131.935L427.506 131.04C405.432 156.779 401.691 203.971 373.9 230.476L382.946 240.299C436.309 229.736 441.539 172.134 434.594 131.935Z" fill="#E87613"/>
<path fill-rule="evenodd" clip-rule="evenodd" d="M484.56 222.415C457.656 225.497 437.867 227.765 425.191 229.217C422.478 229.528 422.132 225.104 422.092 222.856C421.625 196.91 433.912 167.477 426.805 131.283L443.343 126.328C462.492 150.095 473.528 180.794 484.56 222.415Z" fill="#DDE3E9"/>
<path fill-rule="evenodd" clip-rule="evenodd" d="M470.63 147.471C472.931 146.395 474.516 144.321 475.383 141.25C479.122 128.012 475.547 121.373 468.502 119.869C461.457 118.365 456.478 123.714 445.956 124.929C445.384 124.995 444.868 125.096 444.407 125.232L439.181 126.182C435.258 185.746 438.583 224.799 449.158 243.343L495.289 238.015C499.417 244.859 503.206 250.58 506.656 255.18L519.226 253.728C512.039 210.624 495.84 175.205 470.63 147.471Z" fill="#FF9B21"/>
<path fill-rule="evenodd" clip-rule="evenodd" d="M478.246 208.268C479.462 222.115 479.028 232.316 476.945 238.87L494.208 236.887C489.353 228.879 484.032 219.34 478.246 208.268L478.246 208.268Z" fill="black" fill-opacity="0.1"/>
</svg>
